Newaita-dark/actions/16/help-about.svg

<?xml version="1.0" encoding="UTF-8"?>
<svg xmlns="http://www.w3.org/2000/svg" xmlns:xlink="http://www.w3.org/1999/xlink" width="16pt" height="16pt" viewBox="0 0 16 16" version="1.1">
<g id="surface1">
<path style=" stroke:none;fill-rule:nonzero;fill:rgb(74.117649%,74.117649%,74.117649%);fill-opacity:1;" d="M 7.9375 0.785156 C 3.90625 0.785156 0.660156 4.03125 0.660156 8.0625 C 0.660156 12.09375 3.90625 15.339844 7.9375 15.339844 C 11.96875 15.339844 15.214844 12.09375 15.214844 8.0625 C 15.214844 4.03125 11.96875 0.785156 7.9375 0.785156 Z M 7.9375 1.777344 C 11.417969 1.777344 14.222656 4.582031 14.222656 8.0625 C 14.222656 11.542969 11.417969 14.347656 7.9375 14.347656 C 4.457031 14.347656 1.652344 11.542969 1.652344 8.0625 C 1.652344 4.582031 4.457031 1.777344 7.9375 1.777344 Z M 7.9375 1.777344 "/>
<path style=" stroke:none;fill-rule:nonzero;fill:rgb(36.078432%,41.960785%,75.294119%);fill-opacity:1;" d="M 7.9375 6.738281 C 8.304688 6.738281 8.601562 7.035156 8.601562 7.402344 L 8.601562 11.371094 C 8.601562 11.734375 8.304688 12.03125 7.9375 12.03125 C 7.574219 12.03125 7.277344 11.734375 7.277344 11.371094 L 7.277344 7.402344 C 7.277344 7.035156 7.574219 6.738281 7.9375 6.738281 Z M 7.9375 6.738281 "/>
<path style=" stroke:none;fill-rule:nonzero;fill:rgb(36.078432%,41.960785%,75.294119%);fill-opacity:1;" d="M 7.9375 4.425781 C 8.304688 4.425781 8.601562 4.71875 8.601562 5.078125 L 8.601562 5.09375 C 8.601562 5.457031 8.304688 5.746094 7.9375 5.746094 C 7.574219 5.746094 7.277344 5.457031 7.277344 5.09375 L 7.277344 5.078125 C 7.277344 4.71875 7.574219 4.425781 7.9375 4.425781 Z M 7.9375 4.425781 "/>
</g>
</svg>

<svg xmlns="http://www.w3.org/2000/svg" width="16pt" height="16pt" viewBox="0 0 16 16"><path d="M7.938.785A7.262 7.262 0 0 0 .66 8.062a7.262 7.262 0 0 0 7.277 7.278 7.262 7.262 0 0 0 7.278-7.277A7.262 7.262 0 0 0 7.938.785zm0 .992a6.273 6.273 0 0 1 6.285 6.285 6.273 6.273 0 0 1-6.286 6.286 6.273 6.273 0 0 1-6.285-6.286 6.273 6.273 0 0 1 6.285-6.285zm0 0" fill="#bdbdbd"/><path d="M7.938 6.738c.367 0 .664.297.664.664v3.97a.663.663 0 0 1-1.325 0v-3.97c0-.367.297-.664.66-.664zm0 0M7.938 4.426c.367 0 .664.293.664.652v.016a.656.656 0 0 1-.665.652.655.655 0 0 1-.66-.652v-.016c0-.36.297-.652.66-.652zm0 0" fill="#5c6bc0"/></svg>
